angular-fe/src/icons/people.svg

<?xml version="1.0" encoding="UTF-8"?>
<svg width="26" height="24" fill="none" version="1.1" viewBox="0 0 26 24" xmlns="http://www.w3.org/2000/svg">
 <path d="m8.0302 12c-1.4625 0.0446-2.6587 0.6161-3.5885 1.7143h-1.8146c-0.74027 0-1.3632-0.1808-1.8687-0.5424-0.50556-0.3616-0.75833-0.8907-0.75833-1.5871 0-3.1518 0.55972-4.7277 1.6792-4.7277 0.05416 0 0.25052 0.09375 0.58906 0.28125s0.77865 0.37723 1.3203 0.5692c0.54167 0.19196 1.0788 0.28795 1.6115 0.28795 0.60486 0 1.2052-0.10268 1.801-0.30804-0.04514 0.33036-0.06771 0.625-0.06771 0.88393 0 1.2411 0.36563 2.384 1.0969 3.4286zm14.503 8.5312c0 1.0715-0.3295 1.9175-0.9885 2.538s-1.5347 0.9308-2.6271 0.9308h-11.835c-1.0924 0-1.968-0.3103-2.6271-0.9308s-0.98854-1.4665-0.98854-2.538c0-0.4732 0.0158-0.9352 0.04739-1.3861 0.0316-0.4509 0.09479-0.9375 0.18959-1.4598 0.09479-0.5224 0.21441-1.0067 0.35885-1.4532 0.14444-0.4464 0.33854-0.8817 0.58229-1.3058s0.52361-0.7857 0.83959-1.0848c0.31597-0.2991 0.7019-0.5379 1.1578-0.7165 0.4559-0.1786 0.9592-0.2679 1.5099-0.2679 0.09028 0 0.28438 0.096 0.5823 0.288 0.29791 0.192 0.62743 0.4062 0.98854 0.6428 0.36108 0.2367 0.84408 0.4509 1.449 0.6429 0.6048 0.192 1.2142 0.288 1.8281 0.288s1.2233-0.096 1.8281-0.288c0.6049-0.192 1.0879-0.4062 1.449-0.6429 0.3611-0.2366 0.6906-0.4508 0.9885-0.6428s0.492-0.288 0.5823-0.288c0.5507 0 1.054 0.0893 1.5099 0.2679s0.8419 0.4174 1.1578 0.7165c0.316 0.2991 0.5959 0.6607 0.8396 1.0848 0.2438 0.4241 0.4379 0.8594 0.5823 1.3058 0.1444 0.4465 0.2641 0.9308 0.3589 1.4532 0.0947 0.5223 0.1579 1.0089 0.1895 1.4598s0.0474 0.9129 0.0474 1.3861zm-13.867-17.103c0 0.94643-0.33855 1.7545-1.0156 2.4241s-1.4941 1.0045-2.451 1.0045-1.774-0.33482-2.451-1.0045-1.0156-1.4777-1.0156-2.4241 0.33855-1.7545 1.0156-2.4241c0.67708-0.66964 1.4941-1.0045 2.451-1.0045s1.774 0.33482 2.451 1.0045c0.67708 0.66965 1.0156 1.4777 1.0156 2.4241zm9.5333 5.1429c0 1.4196-0.5078 2.6317-1.5234 3.6362-1.0157 1.0045-2.2412 1.5067-3.6766 1.5067s-2.6609-0.5022-3.6766-1.5067c-1.0156-1.0045-1.5234-2.2165-1.5234-3.6362s0.50781-2.6317 1.5234-3.6362c1.0157-1.0045 2.2412-1.5067 3.6766-1.5067s2.6609 0.50223 3.6766 1.5067c1.0156 1.0045 1.5234 2.2165 1.5234 3.6362zm7.8 3.0134c0 0.6964-0.2528 1.2255-0.7583 1.5871-0.5056 0.3616-1.1285 0.5424-1.8688 0.5424h-1.8146c-0.9298-1.0982-2.126-1.6697-3.5885-1.7143 0.7312-1.0446 1.0969-2.1875 1.0969-3.4286 0-0.25893-0.0226-0.55357-0.0677-0.88393 0.5958 0.20536 1.1961 0.30804 1.801 0.30804 0.5326 0 1.0698-0.09599 1.6115-0.28795 0.5416-0.19197 0.9817-0.3817 1.3203-0.5692 0.3385-0.1875 0.5349-0.28125 0.589-0.28125 1.1195 0 1.6792 1.5759 1.6792 4.7277zm-1.7333-8.1562c0 0.94643-0.3386 1.7545-1.0157 2.4241-0.677 0.66964-1.4941 1.0045-2.451 1.0045s-1.774-0.33482-2.451-1.0045c-0.6771-0.66964-1.0157-1.4777-1.0157-2.4241s0.3386-1.7545 1.0157-2.4241c0.677-0.66964 1.4941-1.0045 2.451-1.0045s1.774 0.33482 2.451 1.0045c0.6771 0.66965 1.0157 1.4777 1.0157 2.4241z" fill="#15ADC2"/>
</svg>

<svg width="26" height="24" viewBox="0 0 26 24" fill="none" xmlns="http://www.w3.org/2000/svg">
<path d="M8.03021 12C6.56771 12.0446 5.37153 12.6161 4.44167 13.7143H2.62708C1.88681 13.7143 1.26389 13.5335 0.758333 13.1719C0.252778 12.8103 0 12.2812 0 11.5848C0 8.43304 0.559722 6.85714 1.67917 6.85714C1.73333 6.85714 1.92969 6.95089 2.26823 7.13839C2.60677 7.32589 3.04688 7.51562 3.58854 7.70759C4.13021 7.89955 4.66736 7.99554 5.2 7.99554C5.80486 7.99554 6.40521 7.89286 7.00104 7.6875C6.9559 8.01786 6.93333 8.3125 6.93333 8.57143C6.93333 9.8125 7.29896 10.9554 8.03021 12ZM22.5333 20.5312C22.5333 21.6027 22.2038 22.4487 21.5448 23.0692C20.8858 23.6897 20.0101 24 18.9177 24H7.08229C5.98993 24 5.11424 23.6897 4.45521 23.0692C3.79618 22.4487 3.46667 21.6027 3.46667 20.5312C3.46667 20.058 3.48247 19.596 3.51406 19.1451C3.54566 18.6942 3.60885 18.2076 3.70365 17.6853C3.79844 17.1629 3.91806 16.6786 4.0625 16.2321C4.20694 15.7857 4.40104 15.3504 4.64479 14.9263C4.88854 14.5022 5.1684 14.1406 5.48438 13.8415C5.80035 13.5424 6.18628 13.3036 6.64219 13.125C7.09809 12.9464 7.60139 12.8571 8.15208 12.8571C8.24236 12.8571 8.43646 12.9531 8.73438 13.1451C9.03229 13.3371 9.36181 13.5513 9.72292 13.7879C10.084 14.0246 10.567 14.2388 11.1719 14.4308C11.7767 14.6228 12.3861 14.7188 13 14.7188C13.6139 14.7188 14.2233 14.6228 14.8281 14.4308C15.433 14.2388 15.916 14.0246 16.2771 13.7879C16.6382 13.5513 16.9677 13.3371 17.2656 13.1451C17.5635 12.9531 17.7576 12.8571 17.8479 12.8571C18.3986 12.8571 18.9019 12.9464 19.3578 13.125C19.8137 13.3036 20.1997 13.5424 20.5156 13.8415C20.8316 14.1406 21.1115 14.5022 21.3552 14.9263C21.599 15.3504 21.7931 15.7857 21.9375 16.2321C22.0819 16.6786 22.2016 17.1629 22.2964 17.6853C22.3911 18.2076 22.4543 18.6942 22.4859 19.1451C22.5175 19.596 22.5333 20.058 22.5333 20.5312ZM8.66667 3.42857C8.66667 4.375 8.32812 5.18304 7.65104 5.85268C6.97396 6.52232 6.15694 6.85714 5.2 6.85714C4.24306 6.85714 3.42604 6.52232 2.74896 5.85268C2.07188 5.18304 1.73333 4.375 1.73333 3.42857C1.73333 2.48214 2.07188 1.67411 2.74896 1.00446C3.42604 0.334821 4.24306 0 5.2 0C6.15694 0 6.97396 0.334821 7.65104 1.00446C8.32812 1.67411 8.66667 2.48214 8.66667 3.42857ZM18.2 8.57143C18.2 9.99107 17.6922 11.2031 16.6766 12.2076C15.6609 13.2121 14.4354 13.7143 13 13.7143C11.5646 13.7143 10.3391 13.2121 9.32344 12.2076C8.30781 11.2031 7.8 9.99107 7.8 8.57143C7.8 7.15179 8.30781 5.93973 9.32344 4.93527C10.3391 3.9308 11.5646 3.42857 13 3.42857C14.4354 3.42857 15.6609 3.9308 16.6766 4.93527C17.6922 5.93973 18.2 7.15179 18.2 8.57143ZM26 11.5848C26 12.2812 25.7472 12.8103 25.2417 13.1719C24.7361 13.5335 24.1132 13.7143 23.3729 13.7143H21.5583C20.6285 12.6161 19.4323 12.0446 17.9698 12C18.701 10.9554 19.0667 9.8125 19.0667 8.57143C19.0667 8.3125 19.0441 8.01786 18.999 7.6875C19.5948 7.89286 20.1951 7.99554 20.8 7.99554C21.3326 7.99554 21.8698 7.89955 22.4115 7.70759C22.9531 7.51562 23.3932 7.32589 23.7318 7.13839C24.0703 6.95089 24.2667 6.85714 24.3208 6.85714C25.4403 6.85714 26 8.43304 26 11.5848ZM24.2667 3.42857C24.2667 4.375 23.9281 5.18304 23.251 5.85268C22.574 6.52232 21.7569 6.85714 20.8 6.85714C19.8431 6.85714 19.026 6.52232 18.349 5.85268C17.6719 5.18304 17.3333 4.375 17.3333 3.42857C17.3333 2.48214 17.6719 1.67411 18.349 1.00446C19.026 0.334821 19.8431 0 20.8 0C21.7569 0 22.574 0.334821 23.251 1.00446C23.9281 1.67411 24.2667 2.48214 24.2667 3.42857Z" fill="#15ADC2"/>
</svg>
